symbols/web/directions_railway/materialsymbolsoutlined/directions_railway_wght200gradN25_24px.svg

<svg xmlns="http://www.w3.org/2000/svg" height="24" width="24"><path d="M6.45 19.275v-.425l1.5-1q-1.175 0-1.987-.812-.813-.813-.813-1.988v-9q0-1.55 1.588-2.225Q8.325 3.15 12 3.15q3.7 0 5.275.662 1.575.663 1.575 2.238v9q0 1.175-.812 1.988-.813.812-1.988.812l1.5 1v.425Zm-.4-8.225h11.9v-4.5H6.05Zm10 .925h-10 11.9H16.05ZM12 15.55q.45 0 .763-.313.312-.312.312-.762t-.312-.775q-.313-.325-.763-.325t-.762.313q-.313.312-.313.787 0 .45.313.762.312.313.762.313Zm-4.05 1.4h8.1q.8 0 1.35-.55t.55-1.35v-3.075H6.05v3.075q0 .8.55 1.35t1.35.55ZM12 4.05q-2.775 0-4.175.387-1.4.388-1.7 1.188H17.9q-.275-.8-1.688-1.188Q14.8 4.05 12 4.05Zm0 1.575H17.9 6.125 12Z"/></svg>

<svg xmlns="http://www.w3.org/2000/svg" height="24" width="24"><path d="M6.45 19.275V18.85L7.95 17.85Q6.775 17.85 5.963 17.038Q5.15 16.225 5.15 15.05V6.05Q5.15 4.5 6.738 3.825Q8.325 3.15 12 3.15Q15.7 3.15 17.275 3.812Q18.85 4.475 18.85 6.05V15.05Q18.85 16.225 18.038 17.038Q17.225 17.85 16.05 17.85L17.55 18.85V19.275ZM6.05 11.05H17.95V6.55H6.05ZM16.05 11.975H7.95Q7.15 11.975 6.6 11.975Q6.05 11.975 6.05 11.975H17.95Q17.95 11.975 17.4 11.975Q16.85 11.975 16.05 11.975ZM12 15.55Q12.45 15.55 12.763 15.237Q13.075 14.925 13.075 14.475Q13.075 14.025 12.763 13.7Q12.45 13.375 12 13.375Q11.55 13.375 11.238 13.688Q10.925 14 10.925 14.475Q10.925 14.925 11.238 15.237Q11.55 15.55 12 15.55ZM7.95 16.95H16.05Q16.85 16.95 17.4 16.4Q17.95 15.85 17.95 15.05V11.975H6.05V15.05Q6.05 15.85 6.6 16.4Q7.15 16.95 7.95 16.95ZM12 4.05Q9.225 4.05 7.825 4.437Q6.425 4.825 6.125 5.625H17.9Q17.625 4.825 16.212 4.437Q14.8 4.05 12 4.05ZM12 5.625Q14.8 5.625 16.212 5.625Q17.625 5.625 17.9 5.625H6.125Q6.4 5.625 7.812 5.625Q9.225 5.625 12 5.625Z"/></svg>
